X:1
T: Frank Gilruth
C:Peter Milne
R:Reel
Q: 232
K:E
M:4/4
L:1/8
|:B|e2 dc BE GB|cF Ac BE GB|e2 dc BE GB|ce df ea gf|
e2 dc BE GB|cF Ac BE GB|e2 dc BE GB|ce df ge eg|
ag fe de ce|Be df gf fg|ag fe de ce|Be df ge eg|
ag fe de ce|Be df gf fg|ab af ga ge|1fe dc Ba gf:|2ce df ge e||
